common/src/main/resources/icons/general/collapseAllHover.svg

<svg xmlns="http://www.w3.org/2000/svg" width="16" height="16" data-big="true" viewBox="0 0 24 24"><path fill="#FFF" d="m19.5 3.09 1.41 1.41-4.5 4.5H20v2h-7V4h2v3.59zm1.41 16.41-1.41 1.41-4.5-4.5V20h-2v-7h7v2h-3.59zM4.5 3.09 9 7.59V4h2v7H4V9h3.59l-4.5-4.5zM3.09 19.5l4.5-4.5H4v-2h7v7H9v-3.59l-4.5 4.5z" data-tint="true"/></svg>

<!--
  - The MIT License (MIT)
  -
  - Copyright (c) 2015-2024 Elior "Mallowigi" Boukhobza
  -
  - Permission is hereby granted, free of charge, to any person obtaining a copy
  - of this software and associated documentation files (the "Software"), to deal
  - in the Software without restriction, including without limitation the rights
  - to use, copy, modify, merge, publish, distribute, sublicense, and/or sell
  - copies of the Software, and to permit persons to whom the Software is
  - furnished to do so, subject to the following conditions:
  -
  - The above copyright notice and this permission notice shall be included in all
  - copies or substantial portions of the Software.
  -
  - THE SOFTWARE IS PROVIDED "AS IS", WITHOUT WARRANTY OF ANY KIND, EXPRESS OR
  - IMPLIED, INCLUDING BUT NOT LIMITED TO THE WARRANTIES OF MERCHANTABILITY,
  - FITNESS FOR A PARTICULAR PURPOSE AND NONINFRINGEMENT. IN NO EVENT SHALL THE
  - AUTHORS OR COPYRIGHT HOLDERS BE LIABLE FOR ANY CLAIM, DAMAGES OR OTHER
  - LIABILITY, WHETHER IN AN ACTION OF CONTRACT, TORT OR OTHERWISE, ARISING FROM,
  - OUT OF OR IN CONNECTION WITH THE SOFTWARE OR THE USE OR OTHER DEALINGS IN THE
  - SOFTWARE.
  -->


<svg data-big="true" xmlns="http://www.w3.org/2000/svg" version="1.1" width="16px" height="16px" viewBox="0 0 24 24">
  <path fill="#FFFFFF" data-tint="true"
        d="M19.5,3.09L20.91,4.5L16.41,9H20V11H13V4H15V7.59L19.5,3.09M20.91,19.5L19.5,20.91L15,16.41V20H13V13H20V15H16.41L20.91,19.5M4.5,3.09L9,7.59V4H11V11H4V9H7.59L3.09,4.5L4.5,3.09M3.09,19.5L7.59,15H4V13H11V20H9V16.41L4.5,20.91L3.09,19.5Z"/>
</svg>
